X:1
T:Pomona, 99.99.99 D
T:Pomona, 99.99.99 D
T:James Patrick Denton, Sr., 1913
T:Public Domain Courtesy of the Cyber Hymnal™
C:James Patrick Denton, Sr., 1913
Z:Public Domain
Z:Courtesy of the Cyber Hymnal™
%%score ( 1 2 ) ( 3 4 )
L:1/8
Q:1/4=100
M:9/8
K:G
V:1 treble 
V:2 treble 
V:3 bass 
V:4 bass 
V:1
 [DB]>[CA][B,G] | [DB]3 [DG]3 [CA]>[CG][CE] | [B,D]6 [DG]>[DA][GB] | [Gd]3 [GB]3 [Gd]>[Fc][GB] | %4
 [FA]6 [GB]>[DA][DG] | [GB]3 [DG]3 [EA]>[EG][CE] | [B,D]6 [DG]>[GB][Ge] | [Gd]3 G3 [GB]>G[FA] | %8
 G6 [Gd]>[G^c][Gd] | [Ge]3 [Gc]3 [Gc]>[Gd][Ge] | (d3 B3) [GB]>[G^A][GB] | %11
 [Gd]3 [GB]3 [Gd]>[Fc][GB] | [FA]6 [GB]>[DA][DG] | [GB]3 [DG]3 [EA]>[EG][CE] | %14
 [B,D]6 [DG]>[GB][Ge] | [Gd]3 G3 [GB]>G[FA] | G6 |] %17
V:2
 x3 | x9 | x9 | x9 | x9 | x9 | x9 | x3 G3 G/ x5/2 | G6 x3 | x9 | G6 x3 | x9 | x9 | x9 | x9 | %15
 x3 G3 G/ x5/2 | G6 |] %17
V:3
 [G,,G,]>[G,,G,][G,,G,] | [G,,G,]3 [B,,G,]3 [C,E,]>[C,E,][C,G,] | [G,,G,]6 [G,B,]>[G,C][G,D] | %3
 [G,B,]3 [G,D]3 [B,D]>[A,D][G,D] | [D,D]6 [G,D]>[G,C][G,B,] | [G,D]3 [G,B,]3 [C,C]>[C,C][C,G,] | %6
 [G,,G,]6 [G,B,]>[G,D][G,C] | [G,B,]3 [E,^C]3 [D,D]>[D,B,][D,=C] | [G,,B,]6 [G,B,]>[G,^A,][G,B,] | %9
 [C,C]3 [C,E]3 [E,C]>[D,B,][C,C] | (B,3 D3) [G,D]>[G,^C][G,D] | [G,B,]3 [G,D]3 [B,D]>[A,D][G,D] | %12
 [D,D]6 [G,D]>[G,C][G,B,] | [G,D]3 [G,B,]3 [C,C]>[C,C][C,G,] | [G,,G,]6 [G,B,]>[G,D][G,C] | %15
 [G,B,]3 [E,^C]3 [D,D]>[D,B,][D,=C] | [G,,B,]6 |] %17
V:4
 x3 | x9 | x9 | x9 | x9 | x9 | x9 | x9 | x9 | x9 | G,6 x3 | x9 | x9 | x9 | x9 | x9 | x6 |] %17

